images/rdai.svg

<svg height="250" viewBox="0 0 250 250" width="250" xmlns="http://www.w3.org/2000/svg" xmlns:xlink="http://www.w3.org/1999/xlink"><linearGradient id="a" gradientUnits="userSpaceOnUse" x1="23.4945" x2="265.45475" y1="220.812" y2="86.42325"><stop offset="0" stop-color="#ff3a54"/><stop offset=".417289" stop-color="#ffb700"/><stop offset=".72418" stop-color="#32c065"/><stop offset="1" stop-color="#1239ff"/></linearGradient><path d="m0 129.378906c.0546875 41.390625 19.242188 80.257813 51.617188 104.558594.605468-2.820312.90625-6.0625.90625-9.757812v-125.074219c0-9.925781-2.058594-16.59375-6.167969-19.996094-2.738281-2.269531-8.078125-3.96875-16.027344-5.105469v-10.210937h77.691406v33.613281c7.945313-11.0625 14.792969-19.148438 20.550781-24.25 10.960938-9.644531 22.328126-14.46875 34.113282-14.46875 12.332031 0 21.511718 4.257812 27.539062 12.765625 4.382813 5.957031 6.582032 12.761719 6.582032 20.417969 0 7.09375-1.78125 13.183594-5.34375 18.289062-4.660157 6.808594-11.652344 10.214844-20.96875 10.214844-8.769532 0-17.125-5.671875-25.074219-17.015625-3.835938-5.390625-7.667969-8.085937-11.503907-8.085937-6.851562 0-12.878906 4.542968-18.085937 13.617187-4.109375 7.375-6.167969 16.308594-6.167969 26.800781v80.40625c0 13.328125 1.917969 22.261719 5.753906 26.800782 3.835938 4.539062 11.785157 8.191406 24.253907 6.804687 51.863281-1.578125 110.253906-62.800781 110.332031-128.3125.003906-71.453125-55.960938-121.390625-125-121.390625s-125.00390625 57.925781-125 129.378906zm0 0" fill="url(#a)" fill-rule="evenodd"/></svg>

<?xml version="1.0" encoding="UTF-8"?>
<svg xmlns="http://www.w3.org/2000/svg" xmlns:xlink="http://www.w3.org/1999/xlink" width="250px" height="250px" viewBox="0 0 250 250" version="1.1">
<defs>
<linearGradient id="linear0" gradientUnits="userSpaceOnUse" x1="0.093978" y1="0.883248" x2="1.061819" y2="0.345693" gradientTransform="matrix(250,0,0,250,0,0)">
<stop offset="0" style="stop-color:rgb(100%,22.745098%,32.941177%);stop-opacity:1;"/>
<stop offset="0.417289" style="stop-color:rgb(100%,71.764708%,0%);stop-opacity:1;"/>
<stop offset="0.72418" style="stop-color:rgb(19.607843%,75.294119%,39.607844%);stop-opacity:1;"/>
<stop offset="1" style="stop-color:rgb(7.058824%,22.352941%,100%);stop-opacity:1;"/>
</linearGradient>
</defs>
<g id="surface1">
<path style=" stroke:none;fill-rule:evenodd;fill:url(#linear0);" d="M 0 129.378906 C 0.0546875 170.769531 19.242188 209.636719 51.617188 233.9375 C 52.222656 231.117188 52.523438 227.875 52.523438 224.179688 L 52.523438 99.105469 C 52.523438 89.179688 50.464844 82.511719 46.355469 79.109375 C 43.617188 76.839844 38.277344 75.140625 30.328125 74.003906 L 30.328125 63.792969 L 108.019531 63.792969 L 108.019531 97.40625 C 115.964844 86.34375 122.8125 78.257812 128.570312 73.15625 C 139.53125 63.511719 150.898438 58.6875 162.683594 58.6875 C 175.015625 58.6875 184.195312 62.945312 190.222656 71.453125 C 194.605469 77.410156 196.804688 84.214844 196.804688 91.871094 C 196.804688 98.964844 195.023438 105.054688 191.460938 110.160156 C 186.800781 116.96875 179.808594 120.375 170.492188 120.375 C 161.722656 120.375 153.367188 114.703125 145.417969 103.359375 C 141.582031 97.96875 137.75 95.273438 133.914062 95.273438 C 127.0625 95.273438 121.035156 99.816406 115.828125 108.890625 C 111.71875 116.265625 109.660156 125.199219 109.660156 135.691406 L 109.660156 216.097656 C 109.660156 229.425781 111.578125 238.359375 115.414062 242.898438 C 119.25 247.4375 127.199219 251.089844 139.667969 249.703125 C 191.53125 248.125 249.921875 186.902344 250 121.390625 C 250.003906 49.9375 194.039062 0 125 0 C 55.960938 0 -0.00390625 57.925781 0 129.378906 Z M 0 129.378906 "/>
</g>
</svg>
